X: 1
T: Jenny's Gone to Linton
C: R-51
M: C|
Z: Transcribed to abc by Mary Lou Knack
R: reel
K: A
"A"A2c2 e2g2| a3g a3e| "D"f3e f2g2| "A"a3g aecB|
"A"A2c2 e2g2| a3g a3e| "D"f3a "A"e2c2| "E7"B4 "A"A4 :|
|:\
"A"c2e2 e2a2| "D"f2d2 d2f2| "A"e2c2 c2e2| "E7"d2B2 B4|
"A"c2e2 e2a2| "D"f2d2 d2f2| "A"e2a2 e2c2| "E7"B4 "A"A4 :|
%%text 9/1/98
